public/images/cs_logo.svg

<svg width="141" height="38" viewBox="0 0 141 38" fill="none" xmlns="http://www.w3.org/2000/svg">
<path d="M24.9599 26.3646L14.5301 37L4.02063 26.3646H24.9599Z" fill="url(#paint0_linear)"/>
<path d="M14.5301 31.0201C6.52858 31.0201 0 24.2776 0 16.01C0 7.74248 6.52858 1 14.5301 1C19.1081 1 23.2879 3.16722 26.0745 6.89967C27.229 8.46488 26.9105 10.6722 25.358 11.8361C23.8054 13 21.616 12.6789 20.4615 11.1137C19.0284 9.14716 16.8788 8.06355 14.5301 8.06355C10.39 8.06355 7.00629 11.6355 7.00629 16.01C7.00629 20.3846 10.3502 23.9565 14.5301 23.9565C16.8788 23.9565 19.0682 22.8328 20.5013 20.8261C21.6558 19.2609 23.8453 18.8997 25.3978 20.0635C26.9503 21.2274 27.3086 23.4348 26.1541 25C23.3676 28.8127 19.1081 31.0201 14.5301 31.0201Z" fill="url(#paint1_linear)"/>
<path d="M25.3978 20.0234C23.8851 18.8997 21.815 19.1806 20.6606 20.6254C19.944 21.6689 18.9886 22.5117 17.874 23.1137C17.874 23.1137 17.8342 23.1137 17.8342 23.1538C17.6352 23.2742 17.3963 23.3545 17.1973 23.4348C17.1176 23.4348 17.038 23.4749 16.9982 23.4749C16.8788 23.515 16.7594 23.5552 16.6399 23.5953C16.4807 23.6354 16.3613 23.6756 16.2021 23.7157C16.1224 23.7558 16.003 23.7558 15.9234 23.796C15.7642 23.8361 15.5651 23.8763 15.4059 23.8763C15.3263 23.8763 15.2865 23.8763 15.2068 23.8763C15.0078 23.8763 14.8088 23.9164 14.6097 23.9164H14.5699H14.5301C14.3311 23.9164 14.132 23.9164 13.933 23.8763C13.8534 23.8763 13.8135 23.8763 13.7339 23.8763C13.5349 23.8361 13.3757 23.8361 13.2164 23.796C13.1368 23.796 13.0174 23.7558 12.9378 23.7157C12.7785 23.6756 12.6193 23.6354 12.4999 23.5953C12.3804 23.5552 12.261 23.515 12.1416 23.4749C12.062 23.4348 12.0222 23.4348 11.9426 23.3946C11.7435 23.3144 11.5047 23.194 11.3056 23.1137C11.3056 23.1137 11.2658 23.1137 11.2658 23.0736C10.1512 22.5117 9.19577 21.6288 8.47922 20.5853C7.28496 19.1806 5.21492 18.8997 3.74201 19.9833C2.18948 21.1472 1.83121 23.3545 2.98565 24.9197C4.02067 26.3244 5.25473 27.5284 6.60822 28.4515C6.68784 28.4916 6.72765 28.5318 6.80726 28.5719C6.9665 28.6522 7.08592 28.7726 7.24516 28.8528C7.32477 28.9331 7.4442 28.9732 7.56362 29.0134C7.68305 29.0936 7.80247 29.1338 7.9219 29.214C8.04132 29.2943 8.16075 29.3344 8.28017 29.4147C8.3996 29.4548 8.51903 29.5351 8.63845 29.5752C8.75788 29.6154 8.8773 29.6956 8.99673 29.7358C9.23558 29.816 9.43462 29.9365 9.67347 30.0167C9.75309 30.0569 9.87251 30.097 9.95213 30.097C10.1114 30.1371 10.2706 30.2174 10.4298 30.2575C10.5094 30.2977 10.6289 30.2977 10.7085 30.3378C10.8677 30.3779 11.0668 30.4181 11.226 30.4582C11.3056 30.4983 11.3852 30.4983 11.4648 30.4983C11.6639 30.5385 11.8231 30.5786 12.0222 30.6187C12.1018 30.6187 12.1814 30.6589 12.2212 30.6589C12.4203 30.699 12.6591 30.7391 12.8581 30.7391C12.898 30.7391 12.9776 30.7391 13.0174 30.7793C13.2562 30.8194 13.4951 30.8194 13.7737 30.8595C13.8135 30.8595 13.8135 30.8595 13.8534 30.8595C14.132 30.8595 14.4107 30.8997 14.6893 30.8997C14.968 30.8997 15.2467 30.8997 15.5253 30.8595C15.5651 30.8595 15.5651 30.8595 15.6049 30.8595C15.8438 30.8595 16.0826 30.8194 16.3613 30.7793C16.4011 30.7793 16.4807 30.7793 16.5205 30.7391C16.7196 30.699 16.9584 30.699 17.1575 30.6589C17.2371 30.6589 17.3167 30.6187 17.3565 30.6187C17.5555 30.5786 17.7148 30.5385 17.9138 30.4983C17.9934 30.4983 18.073 30.4582 18.1527 30.4582C18.3119 30.4181 18.5109 30.3779 18.6702 30.3378C18.7498 30.2977 18.8692 30.2977 18.9488 30.2575C19.1081 30.2174 19.2673 30.1371 19.4265 30.097C19.5062 30.0569 19.6256 30.0167 19.7052 30.0167C19.944 29.9365 20.1431 29.8562 20.3819 29.7358C20.5014 29.6956 20.6208 29.6154 20.7402 29.5752C20.8596 29.5351 20.9791 29.4548 21.0985 29.4147C21.2179 29.3746 21.3373 29.2943 21.4568 29.214C21.5762 29.1338 21.6956 29.0936 21.815 29.0134C21.9345 28.9732 22.0141 28.893 22.1335 28.8528C22.2927 28.7726 22.4122 28.6923 22.5714 28.5719C22.651 28.5318 22.6908 28.4916 22.7704 28.4515C24.1239 27.5284 25.358 26.3244 26.393 24.9197C27.3086 23.3946 26.9503 21.1873 25.3978 20.0234Z" fill="url(#paint2_linear)"/>
<path d="M14.7291 20.2642C16.9497 20.2642 18.7498 18.4494 18.7498 16.2107C18.7498 13.972 16.9497 12.1572 14.7291 12.1572C12.5086 12.1572 10.7085 13.972 10.7085 16.2107C10.7085 18.4494 12.5086 20.2642 14.7291 20.2642Z" fill="#74CBE0"/>
<path d="M40.2065 12.8395L33.6381 30.1371H29.9757L32.1652 24.8395L27.3882 12.8395H31.3292L34.0362 21.388L36.5043 12.8395H40.2065V12.8395Z" fill="url(#paint3_linear)"/>
<path d="M53.3035 16.6522V20.6254C53.3035 22.2709 52.8258 23.4348 51.8306 24.117C50.8354 24.7993 49.2828 25.1605 47.0934 25.1605C44.7845 25.1605 43.1921 24.7993 42.3164 24.0769C41.4406 23.3545 41.0027 22.1906 41.0027 20.6254V7.42139H44.6253V14.0033C44.8243 13.4415 45.2224 13.0802 45.8195 12.8796C46.4166 12.6789 47.2924 12.5585 48.5265 12.5585C49.5615 12.5585 50.3975 12.6388 51.0344 12.7993C51.6713 12.9598 52.149 13.2408 52.5073 13.602C52.8258 13.9632 53.0646 14.4047 53.1443 14.8461C53.2637 15.3277 53.3035 15.9297 53.3035 16.6522ZM49.6809 21.107V16.6522C49.6809 15.8495 49.5217 15.3679 49.243 15.1672C48.9644 14.9665 48.2478 14.8461 47.0934 14.8461C46.0584 14.8461 45.3816 14.9665 45.103 15.2475C44.7845 15.5284 44.6253 15.9699 44.6253 16.6522V21.107C44.6253 21.8294 44.7845 22.311 45.103 22.5518C45.4214 22.7926 46.0982 22.913 47.1332 22.913C48.208 22.913 48.8848 22.7926 49.2032 22.5518C49.5217 22.311 49.6809 21.8294 49.6809 21.107Z" fill="url(#paint4_linear)"/>
<path d="M66.2014 19.8629H58.4387V20.9465C58.4387 21.6288 58.6776 22.1104 59.1553 22.4314C59.633 22.7525 60.5486 22.913 61.8623 22.913C63.0565 22.913 64.41 22.7525 65.8829 22.3913V24.7191C64.3702 25.0401 62.7779 25.2007 61.1855 25.2007C56.926 25.2007 54.8162 23.8763 54.8162 21.2676V16.893C54.8162 15.3278 55.2939 14.2442 56.2891 13.5619C57.2843 12.8796 58.7572 12.5585 60.7078 12.5585C62.539 12.5585 63.9323 12.8796 64.8479 13.5217C65.7635 14.1639 66.2014 15.2876 66.2014 16.893V19.8629ZM62.7779 17.7759V16.01C62.7779 15.6087 62.6186 15.3278 62.3002 15.1271C61.9817 14.9264 61.4642 14.806 60.668 14.806C59.7922 14.806 59.1951 14.9264 58.8766 15.1271C58.5582 15.3278 58.3989 15.6488 58.3989 16.01V17.7759H62.7779Z" fill="url(#paint5_linear)"/>
<path d="M75.8749 15.6087H74.6408C73.6456 15.6087 72.8892 15.7692 72.4115 16.0903C71.894 16.4113 71.6552 16.9331 71.6552 17.6956V24.9598H68.0326V12.8394H71.4959V14.9665C71.4959 14.3645 71.8542 13.8026 72.5309 13.321C73.2077 12.8394 73.8844 12.5986 74.6408 12.5986H75.9147V15.6087H75.8749Z" fill="url(#paint6_linear)"/>
<path d="M94.0673 19.2207V20.3043C94.0673 21.2675 93.9081 22.0702 93.5498 22.7525C93.1916 23.3946 92.674 23.9164 91.9973 24.2374C91.3206 24.5986 90.5642 24.8394 89.768 24.9598C88.9719 25.1204 88.0165 25.1605 86.9018 25.1605C85.3493 25.1605 83.4783 25 81.2092 24.719V21.7491C83.956 22.1906 85.8668 22.3913 86.9416 22.3913C89.0913 22.3913 90.1661 21.8294 90.1661 20.7057V19.6622C90.1661 19.1806 90.0069 18.7792 89.7282 18.4582C89.4496 18.1371 88.8922 17.9766 88.0563 17.9766H86.1853C82.6423 17.9766 80.8907 16.5719 80.8907 13.7224V12.5184C80.8907 11.1137 81.4879 10.0702 82.6423 9.38793C83.7968 8.70565 85.6678 8.38458 88.2155 8.38458C89.4496 8.38458 91.1215 8.50498 93.2314 8.70565V11.5953C90.7234 11.3143 89.0117 11.1538 88.0961 11.1538C86.8222 11.1538 85.9464 11.2742 85.4687 11.4749C84.991 11.6756 84.7522 12.0769 84.7522 12.5585V13.7224C84.7522 14.5652 85.4687 15.0067 86.9018 15.0067H88.8524C90.7234 15.0067 92.0769 15.3679 92.8731 16.0501C93.6295 16.8528 94.0673 17.8562 94.0673 19.2207Z" fill="url(#paint7_linear)"/>
<path d="M106.647 19.8629H98.8842V20.9465C98.8842 21.6288 99.123 22.1104 99.6007 22.4314C100.078 22.7525 100.994 22.913 102.308 22.913C103.502 22.913 104.855 22.7525 106.328 22.3913V24.7191C104.816 25.0401 103.223 25.2007 101.631 25.2007C97.3714 25.2007 95.2616 23.8763 95.2616 21.2676V16.893C95.2616 15.3278 95.7393 14.2442 96.7345 13.5619C97.7297 12.8796 99.2026 12.5585 101.153 12.5585C102.984 12.5585 104.378 12.8796 105.293 13.5217C106.209 14.1639 106.647 15.2876 106.647 16.893V19.8629ZM103.223 17.7759V16.01C103.223 15.6087 103.064 15.3278 102.746 15.1271C102.427 14.9264 101.91 14.806 101.113 14.806C100.238 14.806 99.6405 14.9264 99.3221 15.1271C99.0036 15.3278 98.8444 15.6488 98.8444 16.01V17.7759H103.223Z" fill="url(#paint8_linear)"/>
<path d="M119.505 19.8629H111.742V20.9465C111.742 21.6288 111.981 22.1104 112.459 22.4314C112.937 22.7525 113.852 22.913 115.166 22.913C116.36 22.913 117.714 22.7525 119.187 22.3913V24.7191C117.674 25.0401 116.081 25.2007 114.489 25.2007C110.23 25.2007 108.12 23.8763 108.12 21.2676V16.893C108.12 15.3278 108.597 14.2442 109.593 13.5619C110.588 12.8796 112.061 12.5585 114.011 12.5585C115.843 12.5585 117.236 12.8796 118.151 13.5217C119.067 14.1639 119.505 15.2876 119.505 16.893V19.8629ZM116.081 17.7759V16.01C116.081 15.6087 115.922 15.3278 115.604 15.1271C115.285 14.9264 114.768 14.806 113.972 14.806C113.096 14.806 112.499 14.9264 112.18 15.1271C111.862 15.3278 111.703 15.6488 111.703 16.01V17.7759H116.081Z" fill="url(#paint9_linear)"/>
<path d="M124.441 24.9197H120.819V7.42139H124.441V24.9197ZM133 24.9197H128.9L124.561 18.1371L128.502 12.8394H132.642L128.462 18.097L133 24.9197Z" fill="url(#paint10_linear)"/>
<defs>
<linearGradient id="paint0_linear" x1="1.56035" y1="31.6794" x2="59.004" y2="31.6794" gradientUnits="userSpaceOnUse">
<stop stop-color="#71CADF"/>
<stop offset="1" stop-color="#3D489E"/>
</linearGradient>
<linearGradient id="paint1_linear" x1="-8.90073" y1="16.0013" x2="34.4413" y2="16.0013" gradientUnits="userSpaceOnUse">
<stop stop-color="#74CBE0"/>
<stop offset="1" stop-color="#3B499F"/>
</linearGradient>
<linearGradient id="paint2_linear" x1="35.7299" y1="25.1759" x2="-10.9901" y2="25.1759" gradientUnits="userSpaceOnUse">
<stop stop-color="#74CBE0"/>
<stop offset="1" stop-color="#3B499E"/>
</linearGradient>
<linearGradient id="paint3_linear" x1="27.3698" y1="21.4822" x2="133.014" y2="21.4822" gradientUnits="userSpaceOnUse">
<stop stop-color="#74CBE0"/>
<stop offset="1" stop-color="#3B499E"/>
</linearGradient>
<linearGradient id="paint4_linear" x1="27.3698" y1="16.3102" x2="133.014" y2="16.3102" gradientUnits="userSpaceOnUse">
<stop stop-color="#74CBE0"/>
<stop offset="1" stop-color="#3B499E"/>
</linearGradient>
<linearGradient id="paint5_linear" x1="27.3697" y1="18.8838" x2="133.014" y2="18.8838" gradientUnits="userSpaceOnUse">
<stop stop-color="#74CBE0"/>
<stop offset="1" stop-color="#3B499E"/>
</linearGradient>
<linearGradient id="paint6_linear" x1="27.3697" y1="18.7589" x2="133.014" y2="18.7589" gradientUnits="userSpaceOnUse">
<stop stop-color="#74CBE0"/>
<stop offset="1" stop-color="#3B499E"/>
</linearGradient>
<linearGradient id="paint7_linear" x1="27.3698" y1="16.8225" x2="133.014" y2="16.8225" gradientUnits="userSpaceOnUse">
<stop stop-color="#74CBE0"/>
<stop offset="1" stop-color="#3B499E"/>
</linearGradient>
<linearGradient id="paint8_linear" x1="27.3698" y1="18.8838" x2="133.014" y2="18.8838" gradientUnits="userSpaceOnUse">
<stop stop-color="#74CBE0"/>
<stop offset="1" stop-color="#3B499E"/>
</linearGradient>
<linearGradient id="paint9_linear" x1="27.3696" y1="18.8838" x2="133.014" y2="18.8838" gradientUnits="userSpaceOnUse">
<stop stop-color="#74CBE0"/>
<stop offset="1" stop-color="#3B499E"/>
</linearGradient>
<linearGradient id="paint10_linear" x1="27.3698" y1="16.1854" x2="133.014" y2="16.1854" gradientUnits="userSpaceOnUse">
<stop stop-color="#74CBE0"/>
<stop offset="1" stop-color="#3B499E"/>
</linearGradient>
</defs>
</svg>

<svg xmlns="http://www.w3.org/2000/svg" width="141" height="38" fill="none"><path fill="url(#a)" d="M24.96 26.365 14.53 37 4.02 26.365z"/><path fill="url(#b)" d="M14.53 31.02C6.53 31.02 0 24.278 0 16.01S6.529 1 14.53 1c4.578 0 8.758 2.167 11.545 5.9a3.544 3.544 0 0 1-.717 4.936 3.48 3.48 0 0 1-4.896-.722c-1.434-1.967-3.583-3.05-5.932-3.05-4.14 0-7.524 3.572-7.524 7.946 0 4.375 3.344 7.946 7.524 7.946 2.349 0 4.538-1.123 5.971-3.13 1.155-1.565 3.344-1.926 4.897-.762 1.552 1.163 1.91 3.37.756 4.936-2.786 3.813-7.046 6.02-11.624 6.02"/><path fill="url(#c)" d="M25.398 20.023a3.417 3.417 0 0 0-4.737.602 7.94 7.94 0 0 1-2.787 2.489s-.04 0-.04.04c-.199.12-.438.2-.637.28-.08 0-.159.04-.199.04l-.358.121c-.16.04-.279.08-.438.12-.08.04-.199.04-.279.081-.159.04-.358.08-.517.08h-.2c-.198 0-.397.04-.596.04h-.08c-.199 0-.398 0-.597-.04h-.2c-.198-.04-.357-.04-.517-.08a.7.7 0 0 1-.278-.08c-.16-.04-.319-.08-.438-.12l-.358-.121c-.08-.04-.12-.04-.2-.08-.199-.08-.437-.201-.636-.281 0 0-.04 0-.04-.04-1.115-.562-2.07-1.445-2.787-2.489-1.194-1.404-3.264-1.685-4.737-.602-1.553 1.164-1.91 3.372-.756 4.937 1.035 1.404 2.269 2.608 3.622 3.531.08.04.12.08.2.12.159.081.278.202.437.282.08.08.2.12.319.16.119.08.238.12.358.201.12.08.239.12.358.2.12.04.239.121.358.161.12.04.24.12.359.16.239.081.438.201.676.282.08.04.2.08.28.08.158.04.318.12.477.16.08.04.199.04.279.08.159.04.358.081.517.121.08.04.16.04.239.04.199.04.358.08.557.12.08 0 .16.04.2.04.198.041.437.081.636.081.04 0 .12 0 .16.04.238.04.477.04.756.08h.08c.278 0 .557.04.835.04.279 0 .558 0 .836-.04h.08c.239 0 .478-.04.756-.08.04 0 .12 0 .16-.04.199-.04.437-.04.636-.08.08 0 .16-.04.2-.04.198-.04.358-.08.557-.12.08 0 .159-.04.239-.04.159-.04.358-.081.517-.121.08-.04.2-.04.279-.08.16-.04.318-.12.477-.161.08-.04.2-.08.28-.08.238-.08.437-.16.676-.281.12-.04.239-.12.358-.16.12-.04.24-.121.359-.161s.238-.12.358-.201c.12-.08.239-.12.358-.2.12-.04.2-.121.319-.161.159-.08.278-.16.437-.281.08-.04.12-.08.2-.12 1.353-.924 2.587-2.128 3.622-3.532.916-1.525.557-3.733-.995-4.897"/><path fill="#74CBE0" d="M14.73 20.264c2.22 0 4.02-1.815 4.02-4.053s-1.8-4.054-4.02-4.054c-2.221 0-4.021 1.815-4.021 4.054 0 2.238 1.8 4.053 4.02 4.053"/><path fill="url(#d)" d="m40.207 12.84-6.569 17.297h-3.662l2.19-5.297-4.778-12h3.941l2.707 8.548 2.468-8.549z"/><path fill="url(#e)" d="M53.304 16.652v3.973c0 1.646-.478 2.81-1.473 3.492s-2.548 1.043-4.738 1.043q-3.462 0-4.777-1.083c-.875-.723-1.313-1.886-1.313-3.452V7.421h3.622v6.582c.2-.562.597-.923 1.194-1.123.598-.201 1.473-.322 2.707-.322q1.552 0 2.508.241c.637.16 1.115.442 1.473.803.319.361.558.803.637 1.244.12.482.16 1.084.16 1.806m-3.623 4.455v-4.455c0-.803-.16-1.284-.438-1.485-.279-.2-.995-.32-2.15-.32-1.035 0-1.711.12-1.99.4-.319.281-.478.723-.478 1.405v4.455q0 1.083.478 1.445.477.36 2.03.361c1.075 0 1.752-.12 2.07-.361q.478-.362.478-1.445"/><path fill="url(#f)" d="M66.201 19.863H58.44v1.084c0 .682.239 1.163.716 1.484.478.322 1.394.482 2.707.482 1.194 0 2.548-.16 4.02-.522v2.328a22.8 22.8 0 0 1-4.697.482c-4.259 0-6.369-1.325-6.369-3.933v-4.375c0-1.565.478-2.649 1.473-3.331s2.468-1.003 4.419-1.003c1.831 0 3.224.32 4.14.963.915.642 1.353 1.766 1.353 3.371zm-3.423-2.087V16.01c0-.401-.16-.682-.478-.883s-.836-.321-1.632-.321c-.876 0-1.473.12-1.791.321a1.01 1.01 0 0 0-.478.883v1.766z"/><path fill="url(#g)" d="M75.875 15.609H74.64c-.995 0-1.752.16-2.23.481-.517.321-.756.843-.756 1.606v7.264h-3.622V12.84h3.463v2.127c0-.603.358-1.164 1.035-1.646s1.353-.722 2.11-.722h1.274v3.01z"/><path fill="url(#h)" d="M94.067 19.22v1.084c0 .963-.159 1.766-.517 2.449-.358.642-.876 1.163-1.553 1.484a7 7 0 0 1-2.229.723c-.796.16-1.752.2-2.866.2-1.553 0-3.424-.16-5.693-.441v-2.97c2.747.442 4.658.642 5.733.642q3.225 0 3.224-1.685v-1.044c0-.481-.16-.883-.438-1.204q-.418-.48-1.672-.481h-1.87c-3.544 0-5.295-1.405-5.295-4.255v-1.204c0-1.404.597-2.448 1.751-3.13 1.155-.682 3.026-1.003 5.574-1.003 1.234 0 2.906.12 5.015.32v2.89c-2.508-.28-4.22-.441-5.135-.441-1.274 0-2.15.12-2.627.32-.478.202-.717.603-.717 1.085v1.163c0 .843.717 1.285 2.15 1.285h1.95c1.871 0 3.225.36 4.021 1.043.756.803 1.194 1.806 1.194 3.17"/><path fill="url(#i)" d="M106.647 19.863h-7.763v1.084c0 .682.239 1.163.717 1.484.477.322 1.393.482 2.707.482 1.194 0 2.547-.16 4.02-.522v2.328a22.8 22.8 0 0 1-4.697.482c-4.26 0-6.37-1.325-6.37-3.933v-4.375c0-1.565.478-2.649 1.474-3.331.995-.682 2.468-1.003 4.418-1.003 1.831 0 3.225.32 4.14.963.916.642 1.354 1.766 1.354 3.371zm-3.424-2.087V16.01c0-.401-.159-.682-.477-.883-.319-.2-.836-.321-1.633-.321-.875 0-1.472.12-1.79.321-.32.2-.479.522-.479.883v1.766z"/><path fill="url(#j)" d="M119.505 19.863h-7.763v1.084c0 .682.239 1.163.717 1.484.478.322 1.393.482 2.707.482 1.194 0 2.548-.16 4.021-.522v2.328a22.8 22.8 0 0 1-4.698.482c-4.259 0-6.369-1.325-6.369-3.933v-4.375c0-1.565.477-2.649 1.473-3.331.995-.682 2.468-1.003 4.418-1.003 1.832 0 3.225.32 4.14.963.916.642 1.354 1.766 1.354 3.371zm-3.424-2.087V16.01c0-.401-.159-.682-.477-.883-.319-.2-.836-.321-1.632-.321-.876 0-1.473.12-1.792.321a1.01 1.01 0 0 0-.477.883v1.766z"/><path fill="url(#k)" d="M124.441 24.92h-3.622V7.42h3.622zm8.559 0h-4.1l-4.339-6.783 3.941-5.298h4.14l-4.18 5.258z"/><defs><linearGradient id="a" x1="1.56" x2="59.004" y1="31.679" y2="31.679" gradientUnits="userSpaceOnUse"><stop stop-color="#71CADF"/><stop offset="1" stop-color="#3D489E"/></linearGradient><linearGradient id="b" x1="-8.901" x2="34.441" y1="16.001" y2="16.001" gradientUnits="userSpaceOnUse"><stop stop-color="#74CBE0"/><stop offset="1" stop-color="#3B499F"/></linearGradient><linearGradient id="c" x1="35.73" x2="-10.99" y1="25.176" y2="25.176" gradientUnits="userSpaceOnUse"><stop stop-color="#74CBE0"/><stop offset="1" stop-color="#3B499E"/></linearGradient><linearGradient id="d" x1="27.37" x2="133.014" y1="21.482" y2="21.482" gradientUnits="userSpaceOnUse"><stop stop-color="#74CBE0"/><stop offset="1" stop-color="#3B499E"/></linearGradient><linearGradient id="e" x1="27.37" x2="133.014" y1="16.31" y2="16.31" gradientUnits="userSpaceOnUse"><stop stop-color="#74CBE0"/><stop offset="1" stop-color="#3B499E"/></linearGradient><linearGradient id="f" x1="27.37" x2="133.014" y1="18.884" y2="18.884" gradientUnits="userSpaceOnUse"><stop stop-color="#74CBE0"/><stop offset="1" stop-color="#3B499E"/></linearGradient><linearGradient id="g" x1="27.37" x2="133.014" y1="18.759" y2="18.759" gradientUnits="userSpaceOnUse"><stop stop-color="#74CBE0"/><stop offset="1" stop-color="#3B499E"/></linearGradient><linearGradient id="h" x1="27.37" x2="133.014" y1="16.823" y2="16.823" gradientUnits="userSpaceOnUse"><stop stop-color="#74CBE0"/><stop offset="1" stop-color="#3B499E"/></linearGradient><linearGradient id="i" x1="27.37" x2="133.014" y1="18.884" y2="18.884" gradientUnits="userSpaceOnUse"><stop stop-color="#74CBE0"/><stop offset="1" stop-color="#3B499E"/></linearGradient><linearGradient id="j" x1="27.37" x2="133.014" y1="18.884" y2="18.884" gradientUnits="userSpaceOnUse"><stop stop-color="#74CBE0"/><stop offset="1" stop-color="#3B499E"/></linearGradient><linearGradient id="k" x1="27.37" x2="133.014" y1="16.185" y2="16.185" gradientUnits="userSpaceOnUse"><stop stop-color="#74CBE0"/><stop offset="1" stop-color="#3B499E"/></linearGradient></defs></svg>
